X:1
T:His Banner Over Us
T:His Banner Over Us
T:Helen Howarth Lemmel
T:Helen Howarth Lemmel, 1922
T:Public Domain Courtesy of the Cyber Hymnal™
C:Helen Howarth Lemmel
Z:Public Domain
Z:Courtesy of the Cyber Hymnal™
%%score ( 1 2 ) ( 3 4 )
L:1/8
Q:1/4=115
M:4/4
K:Ab
V:1 treble 
V:2 treble 
V:3 bass 
V:4 bass 
V:1
"^With martial spirit (voices in unison)" EF | A2 [FA]2 E2 [DA]2 | [CA]4 z2 Bc | %3
w: 1.~We are|child- ren of the|King, And His|
w: 2.~He, the|glor- ious Son of|God, Hath the|
w: 3.~Fear- less|in our lead- er’s|might, Strong to|
 [Gd]2 [Fd]2 [Ed]2 [Ad]2 | [EGd]4 z2 cB | [ce]3 [Bd] [Ac]2 [CA]2 | c3 B [FA]2 [C_EG]2 | %7
w: prais- es we will|sing, As we|jour- ney to our|home a- bove— His|
w: way be- fore us|trod; O- ver|ev- ery foe we’ll|con- queror prove— His|
w: do and dare the|right; We will|jour- ney to our|home a- bove— His|
 F>G A>B [B,=DG]2 [B,DF]2 | E4 x4 ||"^Refrain" [EAc]2 [EAc]2 z (E[=DF][_DG]) | %10
w: ban- ner o- ver us is|love!||
w: ban- ner o- ver us is|love!|March- ing! March- * *|
w: ban- ner o- ver us is|love!||
 [CEA]2 [CEA]2 z E[EF][EG] | [CEA]2 [CEG]2 [CEA]2 [CEF]2 | [DEG]4 z2 ([GB][Ac]) | %13
w: |||
w: ing! With hap- py hearts|we on- ward move;|No foe *|
w: |||
 [EBd]2 [Ad]2 [GBd]2 cB | [EAce]2 [EAc]2 [CFA]2 [C=EG]2 | F>G A>[Bd] [EAc]2 [DEGB]2 | [CEA]6 |] %17
w: ||||
w: we fear, with our cap-|tain near— His ban-|ner o- ver us is love!||
w: ||||
V:2
 EF | A2 x6 | x6 E2 | x8 | x6 [EG]2 | E6 x2 | [=EG]4 x4 | C2 [CF]2 x4 | ([G,B,]2 =DEFGAB) || x8 | %10
 x5 E x2 | x8 | x5 E2 x | x6 [EG]2 | x8 | D2 F2 x4 | x6 |] %17
V:3
 E,F, | A,2 [D,A,]2 [C,A,]2 [B,,A,]2 | ([A,,A,]2 [E,,F,]2 [A,,,A,,]2) G,A, | %3
 [B,,B,]2 [A,,A,]2 [G,,G,]2 [F,,F,]2 | ([E,,E,]2 [B,,B,]2 [E,E]2) [E,,E,]2 | %5
 ([A,,,A,,]2 [C,,C,]2) [E,,E,]2 [F,,F,]2 | ([C,,C,]2 [=E,,=E,]2) [F,,F,]2 [G,,G,]2 | %7
 [A,,A,]2 [F,,F,]2 [B,,,B,,]2 [B,,F,A,]2 | ([E,,E,]4 [E,B,D]2 [E,,E,]2) || %9
 [A,,A,]2 ([E,,E,]2 [C,,C,]2 [E,,E,]2) | [A,,A,]2 [E,,E,]2 [C,,C,]2 [B,,,B,,]2 | %11
 [A,,,A,,]2 [E,,E,]2 [C,,C,]2 [A,,,A,,]2 | ([B,,,B,,]2 [E,,E,][F,,F,]) [E,,E,]2 [E,,,E,,]2 | %13
 [G,,,G,,]2 [F,,F,]2 [E,,E,]2 [D,,D,]2 | [C,,C,]2 [E,,E,]2 [F,,F,]2 [C,,C,]2 | %15
 [D,,D,]2 [B,,,B,,]2 [E,,E,]2 [E,G,B,]2 | [A,,A,]2 [E,,E,]2 [A,,,A,,]2 |] %17
V:4
 E,F, | A,2 x6 | x6 E,2 | x8 | x8 | x8 | x8 | x8 | x8 || x8 | x8 | x8 | x8 | x8 | x8 | x8 | x6 |] %17

